public/svg/icon/zilla.svg

<svg xmlns="http://www.w3.org/2000/svg" xmlns:xlink="http://www.w3.org/1999/xlink" width="32" height="32" viewBox="0 0 32 32"><defs><linearGradient id="zilla-c" x1="50%" x2="50%" y1="0%" y2="100%"><stop offset="0%" stop-color="#FFF" stop-opacity=".5"/><stop offset="100%" stop-opacity=".5"/></linearGradient><circle id="zilla-b" cx="15" cy="15" r="15"/><filter id="zilla-a" width="111.7%" height="111.7%" x="-5.8%" y="-4.2%" filterUnits="objectBoundingBox"><feOffset dy=".5" in="SourceAlpha" result="shadowOffsetOuter1"/><feGaussianBlur in="shadowOffsetOuter1" result="shadowBlurOuter1" stdDeviation=".5"/><feComposite in="shadowBlurOuter1" in2="SourceAlpha" operator="out" result="shadowBlurOuter1"/><feColorMatrix in="shadowBlurOuter1" values="0 0 0 0 0 0 0 0 0 0 0 0 0 0 0 0 0 0 0.199473505 0"/></filter></defs><g fill="none" transform="translate(1)"><use fill="#000" filter="url(#zilla-a)" xlink:href="#zilla-b"/><use fill="#00004D" fill-rule="evenodd" xlink:href="#zilla-b"/><use fill="url(#zilla-c)" fill-rule="evenodd" style="mix-blend-mode:soft-light" xlink:href="#zilla-b"/><circle cx="15" cy="15" r="14.5" stroke="#000" stroke-linejoin="square" stroke-opacity=".097"/><path fill="#FFF" d="M14.5354888,5.88153888 C14.449247,6.2472403 14.1905216,7.40123145 14.0729191,8.17326779 C14.0258782,8.49020902 13.8298741,8.91279733 14.3786855,9.14034488 C14.2532429,9.16472497 14.2140421,9.18097837 14.1748413,9.17285167 C13.7828331,9.12409148 13.3829847,9.06720459 12.9909765,9.0184444 C12.9047347,9.01031771 12.7949724,8.99406431 12.7165708,9.0346978 C12.1912798,9.31100554 11.9560749,9.9692681 12.2226405,10.5300103 C12.3716036,10.8469515 12.4186446,11.1395126 12.3559233,11.4727073 C12.3402429,11.5539743 12.3716036,11.6514946 12.4029642,11.7246349 C12.7087306,12.4722912 12.7636118,13.2199474 12.5205667,14.0001104 C12.4813659,14.1220109 12.5048864,14.2682915 12.5127265,14.3983186 C12.5284069,14.6502463 12.5440872,14.9021739 12.5676077,15.1541016 C12.1834397,14.845287 11.7600708,14.5689793 11.4386241,14.1951512 C11.1250176,13.8294498 10.9603741,13.3499746 10.9995749,12.8217392 C11.0074151,12.7242188 10.9290135,12.610445 10.8662921,12.5210513 C10.6859684,12.2528703 10.474284,12.0090694 10.3253208,11.7246349 C10.1136364,11.3183 9.85491102,11.1476393 9.43154217,11.2776665 C9.21985775,11.3426801 9.02385365,11.480834 8.84352989,11.6189878 C8.68672661,11.7327616 8.55344383,11.8790422 8.41232088,12.0090694 C8.39664055,11.992816 8.37312006,11.9765626 8.35743973,11.9603092 C8.38096022,11.9034223 8.38880039,11.8384087 8.42016104,11.7815218 C8.63968563,11.3751869 8.63184546,11.3833136 8.32607908,11.0419923 C7.73806679,10.3837297 7.22845615,9.67670696 7.00893156,8.78277015 C6.89916927,8.33580175 6.76588648,7.89696005 6.64828402,7.45811834 C6.06027174,8.18952118 5.9818701,10.8225714 6.56204222,11.8627888 C6.38171846,10.9444719 6.20139469,10.0749152 6.40523895,9.18097837 C6.44443977,9.38414583 6.46796026,9.57918658 6.47580042,9.78235404 C6.50716108,10.5056302 6.67964468,11.1882728 6.98541107,11.830282 C7.04813238,11.9684359 7.22845615,12.0497029 7.36173893,12.1472232 C7.40877991,12.17973 7.47150122,12.1959834 7.52638237,12.2203635 C7.51854221,12.2528703 7.51854221,12.2853771 7.51070204,12.3097572 C7.22061598,12.2935038 6.93837009,12.260997 6.64828402,12.2528703 C6.46012009,12.2447436 6.24059551,12.1959834 6.0916324,12.2772504 C5.8956283,12.3828975 5.73882502,12.5860649 5.62906273,12.7892324 C5.59770208,12.8461193 5.75450535,13.0736668 5.87210781,13.1630605 C6.18571436,13.3987348 6.39739878,13.6587891 6.3503578,14.0976308 C6.34251764,14.2032779 6.46012009,14.3901919 6.56204222,14.4308254 C6.84428812,14.5364725 6.92268976,14.7477667 6.96973074,15.0159477 C7.0010914,15.1866084 7.02461189,15.4060292 7.13437418,15.5035496 C7.48718155,15.8286175 7.59694384,16.2186991 7.60478401,16.6900475 C7.61262417,16.9907354 7.76942745,17.2995499 7.73022663,17.5921111 C7.69886597,17.8440387 7.74590696,18.0309528 7.84782909,18.1772333 L7.83998892,18.1772333 C7.84782909,18.18536 7.85566925,18.1934867 7.86350941,18.2016134 C7.92623072,18.2991338 8.01247252,18.3804008 8.11439465,18.4535411 C8.23199711,18.5673148 8.31823891,18.6485818 8.31823891,18.6485818 C8.31823891,18.6485818 8.67104628,19.0305366 8.67888645,19.4043648 C8.68672661,19.7781929 8.65536596,19.8269531 8.76512825,20.1601477 C8.87489054,20.4852156 9.02385365,20.74527 9.07089464,21.0215777 C9.11793562,21.2978855 9.01601349,21.3791524 9.18065693,21.5579398 C9.34530037,21.7367272 9.52562414,21.8586276 9.71378807,22.0617951 C9.89411184,22.2730892 10.1528372,22.3462295 10.3253208,22.5250169 C10.4978044,22.7038043 10.7722102,23.0369989 10.9838946,23.248293 C11.0936569,23.3620668 11.24262,23.4514605 11.3523823,23.5164741 C11.383743,23.5489809 11.3994233,23.5652343 11.3915831,23.5814877 C11.24262,23.9065556 11.5483864,23.8984289 11.6659889,24.004076 C11.8698331,24.1828633 12.1599192,24.2966371 12.3088823,24.516058 C12.5754479,24.9142662 12.9204151,25.1174336 13.3516241,25.2393341 C13.3908249,25.2474608 13.4378659,25.2555875 13.4535462,25.2799676 C13.5084273,25.3449812 13.5476282,25.4262482 13.5946691,25.4993884 C13.5789888,25.5237685 13.5554683,25.5481486 13.539788,25.5725287 C13.970997,25.726936 14.402206,25.88947 14.833415,26.0357505 C14.9196568,26.0682573 15.0294191,26.0682573 15.1078208,26.0438772 C15.4684683,25.9219768 15.8291158,25.7919496 16.1897634,25.6619224 C16.2603248,25.6375423 16.3700871,25.564402 16.362247,25.5318952 C16.3073658,25.2718409 16.5190502,25.3124744 16.6366527,25.2474608 C16.9188986,25.0930535 17.2481855,24.9792798 17.4598699,24.7598589 C17.7185953,24.4835512 17.9538002,24.1991167 18.2987674,24.0122027 C18.4398904,23.9309357 18.7221363,23.8984289 18.5810133,23.5896144 C18.5731732,23.573361 18.6515748,23.5083474 18.6907756,23.4677139 C18.7456568,23.4189537 18.8083781,23.3783202 18.8867797,23.3133066 C18.9416609,23.2889265 19.0043822,23.248293 19.1063043,23.1751528 C19.333669,22.9963654 19.8040789,22.549397 19.9922428,22.3137227 C20.1804067,22.0780485 20.4861731,21.7854874 20.4861731,21.7854874 C20.4861731,21.7854874 20.290169,21.3222656 20.4156116,20.9159306 L21.0820256,20.420202 C21.2231485,20.1195142 21.2623493,20.0057404 21.4191526,19.6969259 C21.5681157,19.3881114 21.6073165,18.7948624 21.819001,18.5591881 C22.0071649,18.3560207 22.2345296,18.1934867 22.2266895,18.0634596 C22.2737305,17.9415591 22.2894108,17.8034052 22.2737305,17.6327445 C22.25021,17.4214504 22.3207715,17.2020295 22.3442919,16.9907354 C22.3599723,16.811948 22.3442919,16.6331607 22.3913329,16.4625 C22.4697346,16.1861923 22.5246157,15.8611243 22.6970993,15.6660836 C22.8852632,15.4547894 23.0107059,15.2678754 23.0342264,14.9834409 C23.0577468,14.73964 23.1518288,14.5445992 23.3948739,14.4308254 C23.5124763,14.3739385 23.6300788,14.1788978 23.6300788,14.0488706 C23.6222386,13.6831692 23.7398411,13.4231149 24.0377673,13.2280741 C24.1240091,13.1711872 24.1867304,13.0736668 24.2729722,13.0086532 C24.4140952,12.9030062 24.3905747,12.7811057 24.3121731,12.6429518 C24.1083288,12.2772504 23.8025624,12.1472232 23.3948739,12.2203635 C23.0891075,12.2772504 22.6265378,12.3097572 22.4618944,12.3097572 C22.297251,12.3097572 22.4148534,12.1878567 22.4148534,12.1878567 C22.9950255,12.1716033 23.065587,11.6921281 23.1988698,11.3020466 C23.3086321,10.9769787 23.3713534,10.6356574 23.4262345,10.294336 C23.4811157,9.9692681 23.4811157,9.81486083 23.543837,9.31100554 C23.6065583,8.80715025 23.7555214,10.2862093 23.5203165,11.4970874 C23.9907263,10.7819379 23.8417632,8.18952118 23.3164723,7.42561155 C23.3007919,7.44186494 23.2851116,7.44999164 23.2851116,7.46624504 C23.2615911,7.56376542 23.2459108,7.6612858 23.2223903,7.75880618 C22.9950255,9.00219101 22.5246157,10.1155487 21.6543575,11.0257389 C21.3329108,11.3589335 21.3485911,11.3670602 21.5681157,11.7977752 C21.5916362,11.8384087 21.5916362,11.8952956 21.5994764,11.9521825 C21.4113124,11.8627888 21.2701895,11.7327616 21.1290666,11.6108611 C20.862501,11.3670602 20.5645748,11.2451597 20.1960871,11.2532864 C19.8197592,11.2532864 19.7178371,11.5295942 19.6080748,11.7977752 C19.4042305,12.2853771 18.9259805,12.5860649 18.9103002,13.2362008 C18.8867797,14.1870245 18.040042,14.6664997 17.4912306,15.3003821 C17.4833904,15.3085088 17.4598699,15.2922555 17.4285092,15.2922555 C17.4206691,15.2597487 17.3971486,15.2191152 17.4049888,15.1866084 C17.4049888,14.6014861 17.561792,14.0082371 17.3030666,13.4474949 C17.2873863,13.4149882 17.2952265,13.366228 17.3030666,13.3337212 C17.4049888,12.5129247 17.4990707,11.7002548 17.608833,10.887585 C17.6245133,10.7819379 17.6793945,10.6844175 17.7264355,10.5868972 C18.0008412,10.0017749 17.7969969,9.33538564 17.2403453,9.0428245 C17.177624,9.01031771 17.0913822,9.00219101 17.0208207,9.01031771 C16.7150543,9.0509512 16.4171281,9.10783808 16.1192019,9.14847158 C15.9702388,9.17285167 15.8134355,9.17285167 15.6644724,9.18097837 C15.6566322,9.15659827 15.6487921,9.13221818 15.6409519,9.11596478 C15.8918371,9.0346978 16.0172798,8.88029053 15.9623986,8.60398279 C15.7742347,7.6694125 15.5860708,6.7267155 15.3979068,5.7921452 C15.3822265,5.71900492 15.3665462,5.35330349 15.452788,5.54021755 C15.5390298,5.73525831 15.8134355,6.57230823 15.9702388,7.10054362 C16.1192019,7.61252561 16.2368043,8.14076099 16.3700871,8.66086968 C16.1505625,7.2061907 15.8134355,5.7921452 14.9823781,4.50000018 C14.7550134,4.77630792 14.5590093,5.14200934 14.4570872,5.41831708 C14.355165,5.69462482 14.065079,6.61294172 13.8925954,7.2061907 C13.7593126,7.6694125 13.4143454,8.5796027 13.5633085,8.60398279 C13.7122716,8.62836289 14.4414068,5.89779228 14.4884478,5.70275152 C14.5354888,5.50771076 14.6217306,5.51583746 14.5354888,5.88153888 Z"/></g></svg>

<svg xmlns="http://www.w3.org/2000/svg" xmlns:xlink="http://www.w3.org/1999/xlink" width="32" height="32" viewBox="0 0 32 32"><defs><linearGradient id="c" x1="50%" x2="50%" y1="0%" y2="100%"><stop offset="0%" stop-color="#FFF" stop-opacity=".5"/><stop offset="100%" stop-opacity=".5"/></linearGradient><filter id="a" width="111.7%" height="111.7%" x="-5.8%" y="-4.2%" filterUnits="objectBoundingBox"><feOffset dy=".5" in="SourceAlpha" result="shadowOffsetOuter1"/><feGaussianBlur in="shadowOffsetOuter1" result="shadowBlurOuter1" stdDeviation=".5"/><feComposite in="shadowBlurOuter1" in2="SourceAlpha" operator="out" result="shadowBlurOuter1"/><feColorMatrix in="shadowBlurOuter1" values="0 0 0 0 0 0 0 0 0 0 0 0 0 0 0 0 0 0 0.199473505 0"/></filter><circle id="b" cx="15" cy="15" r="15"/></defs><g fill="none" transform="translate(1)"><use fill="#000" filter="url(#a)" xlink:href="#b"/><use fill="#00004D" fill-rule="evenodd" xlink:href="#b"/><use fill="url(#c)" fill-rule="evenodd" style="mix-blend-mode:soft-light" xlink:href="#b"/><circle cx="15" cy="15" r="14.5" stroke="#000" stroke-linejoin="square" stroke-opacity=".097"/><path fill="#FFF" d="M14.535 5.882c-.086.365-.344 1.52-.462 2.291-.047.317-.243.74.306.967-.126.025-.165.041-.204.033-.392-.049-.792-.106-1.184-.155-.086-.008-.196-.024-.274.017a1.14 1.14 0 00-.494 1.495c.149.317.196.61.133.943a.468.468 0 00.047.252c.306.747.36 1.495.118 2.275-.04.122-.016.268-.008.398.015.252.031.504.055.756-.385-.309-.808-.585-1.13-.959A1.869 1.869 0 0111 12.822c.007-.098-.071-.212-.134-.3-.18-.27-.392-.513-.54-.797-.212-.407-.471-.577-.894-.447-.212.065-.408.203-.588.341-.157.114-.29.26-.432.39-.015-.016-.039-.032-.055-.049.024-.057.032-.122.063-.178.22-.407.212-.399-.094-.74-.588-.658-1.098-1.365-1.317-2.26-.11-.446-.243-.885-.36-1.324-.589.732-.667 3.365-.087 4.405-.18-.919-.36-1.788-.157-2.682.04.203.063.398.07.601.032.724.205 1.406.51 2.048.063.138.243.22.377.317.047.033.11.049.164.073-.007.033-.007.065-.015.09-.29-.016-.573-.049-.863-.057-.188-.008-.407-.057-.556.024-.196.106-.353.31-.463.512-.031.057.126.285.243.374.314.236.525.496.478.935-.007.105.11.292.212.333.282.105.36.317.408.585.031.17.055.39.164.488.353.325.463.715.47 1.186.009.3.165.61.126.902-.031.252.016.439.118.585H7.84l.024.025a.945.945 0 00.25.252l.204.195s.353.382.36.755c.009.374-.023.423.087.756.11.325.259.585.306.862.047.276-.055.357.11.536.164.179.345.3.533.504.18.211.439.284.611.463.173.179.447.512.659.723.11.114.259.203.368.268.032.033.047.05.04.065-.15.326.156.317.274.423.204.179.494.293.643.512.266.398.611.601 1.043.723.039.008.086.017.102.041.054.065.094.146.14.22-.015.024-.039.048-.054.073.431.154.862.316 1.293.463a.454.454 0 00.275.008c.36-.122.721-.252 1.082-.382.07-.024.18-.098.172-.13-.055-.26.157-.22.275-.285.282-.154.611-.268.823-.487.259-.276.494-.56.839-.748.14-.081.423-.114.282-.422-.008-.017.07-.082.11-.122.055-.049.117-.09.196-.155.055-.024.117-.065.22-.138a7.56 7.56 0 00.885-.861c.188-.236.494-.529.494-.529s-.196-.463-.07-.87l.666-.495c.141-.3.18-.414.337-.723.15-.309.188-.902.4-1.138.188-.203.416-.366.408-.496a.94.94 0 00.047-.43c-.024-.212.047-.431.07-.642.016-.18 0-.358.047-.529.079-.276.134-.6.306-.796.188-.211.314-.398.337-.683.024-.243.118-.438.36-.552a.51.51 0 00.236-.382c-.008-.366.11-.626.408-.82.086-.058.149-.155.235-.22.141-.106.118-.228.04-.366-.205-.366-.51-.496-.918-.423a6.7 6.7 0 01-.933.09c-.165 0-.047-.122-.047-.122.58-.016.65-.496.784-.886a6.24 6.24 0 00.227-1.008c.055-.325.055-.48.118-.983.063-.504.212.975-.024 2.186.47-.715.322-3.307-.204-4.071-.015.016-.03.024-.03.04-.024.098-.04.195-.064.293-.227 1.243-.697 2.357-1.568 3.267-.321.333-.305.341-.086.772.024.04.024.097.031.154-.188-.09-.329-.22-.47-.341a1.276 1.276 0 00-.933-.358c-.376 0-.478.277-.588.545-.204.487-.682.788-.698 1.438-.023.951-.87 1.43-1.419 2.064-.008.009-.031-.008-.062-.008-.008-.032-.032-.073-.024-.105 0-.586.157-1.179-.102-1.74-.016-.032-.008-.08 0-.113.102-.821.196-1.634.306-2.446.016-.106.07-.204.117-.301.275-.585.071-1.252-.486-1.544a.405.405 0 00-.22-.033c-.305.041-.603.098-.9.138-.15.025-.307.025-.456.033a.437.437 0 00-.023-.065c.25-.081.376-.236.321-.512l-.564-2.812c-.016-.073-.031-.439.055-.252.086.195.36 1.032.517 1.56.15.513.267 1.04.4 1.56-.22-1.454-.557-2.868-1.388-4.16a3.44 3.44 0 00-.525.918 40.95 40.95 0 00-.564 1.788c-.134.463-.479 1.374-.33 1.398.15.024.878-2.706.925-2.901.047-.195.134-.187.047.179z"/></g></svg>
